X:127
T:Miss Marie Stewarts jig
O:scotland
R:Jig
M:6/8
L:1/8
K:F
c|f2c f2c|fga gfe|1 d2f c2A|BGG G2:|2 f2d c2B|AFF F2:|
|:B|AFF cFF|dFF cFF|d2f c2A|BGG G2c|
fef gab|agf efg|f2d c2B|AFF F2:|
